_src_/blocks/distribution/underflow-gate.svg

<?xml version="1.0" encoding="UTF-8" standalone="no"?>
<svg
   inkscape:version="1.1.2 (0a00cf5339, 2022-02-04, custom)"
   sodipodi:docname="underflow-gate.svg"
   id="svg5"
   version="1.1"
   viewBox="0 0 8.4666667 8.4666667"
   height="32"
   width="32"
   xmlns:inkscape="http://www.inkscape.org/namespaces/inkscape"
   xmlns:sodipodi="http://sodipodi.sourceforge.net/DTD/sodipodi-0.dtd"
   xmlns:xlink="http://www.w3.org/1999/xlink"
   xmlns="http://www.w3.org/2000/svg"
   xmlns:svg="http://www.w3.org/2000/svg"
   xmlns:rdf="http://www.w3.org/1999/02/22-rdf-syntax-ns#"
   xmlns:cc="http://creativecommons.org/ns#"
   xmlns:dc="http://purl.org/dc/elements/1.1/">
  <metadata
     id="metadata78">
    <rdf:RDF>
      <cc:Work
         rdf:about="">
        <dc:format>image/svg+xml</dc:format>
        <dc:type
           rdf:resource="http://purl.org/dc/dcmitype/StillImage" />
        <dc:title />
      </cc:Work>
    </rdf:RDF>
  </metadata>
  <sodipodi:namedview
     inkscape:document-rotation="0"
     inkscape:snap-global="true"
     units="px"
     inkscape:current-layer="layer3"
     inkscape:window-maximized="1"
     inkscape:window-y="0"
     inkscape:window-x="0"
     inkscape:window-height="1040"
     inkscape:window-width="1920"
     inkscape:cy="17.67767"
     inkscape:cx="18.870912"
     inkscape:zoom="22.627417"
     showgrid="true"
     inkscape:document-units="px"
     inkscape:pagecheckerboard="0"
     inkscape:pageopacity="0.0"
     inkscape:pageshadow="2"
     borderopacity="1.0"
     bordercolor="#666666"
     pagecolor="#ffffff"
     id="namedview7">
    <inkscape:grid
       empspacing="4"
       spacingy="0.13229167"
       spacingx="0.13229167"
       id="grid1873"
       type="xygrid" />
  </sodipodi:namedview>
  <defs
     id="defs2" />
  <g
     style="display:inline"
     inkscape:label="vector"
     id="layer3"
     inkscape:groupmode="layer">
    <path
       id="path2142"
       d="M 9.5367429e-7,4.7683716e-7 H 8.4666679 V 8.4666676 H 9.5367429e-7 Z"
       style="fill:none;stroke:none;stroke-width:0.264583px;stroke-linecap:butt;stroke-linejoin:miter;stroke-opacity:1" />
    <rect
       y="4.7683716e-07"
       x="9.5367426e-07"
       height="8.4666662"
       width="8.4666662"
       id="rect8428"
       style="fill:#6d6f7e;fill-opacity:1;fill-rule:evenodd;stroke:none;stroke-width:3;stroke-linecap:round;stroke-linejoin:round" />
    <rect
       y="2.116667"
       x="2.116668"
       height="4.2333331"
       width="4.2333307"
       id="rect107383"
       style="fill:#4a4b53;fill-opacity:1;fill-rule:evenodd;stroke:none;stroke-width:3;stroke-linecap:round;stroke-linejoin:round" />
    <path
       id="path32565"
       d="M 2.116667,4.7683716e-7 2.1166672,1.0583335 6.3499994,1.058333 6.3500002,0 Z"
       style="fill:#4a4b53;fill-opacity:1;stroke:none;stroke-width:0.264583px;stroke-linecap:butt;stroke-linejoin:miter;stroke-opacity:1" />
    <path
       id="path32565-3"
       d="m 8.4666648,2.116668 -1.058333,2e-7 5e-7,4.2333322 1.058333,8e-7 z"
       style="display:inline;fill:#4a4b53;fill-opacity:1;stroke:none;stroke-width:0.264583px;stroke-linecap:butt;stroke-linejoin:miter;stroke-opacity:1" />
    <path
       id="path32565-6"
       d="m 2.1166669,7.4083347 2e-7,1.058333 4.2333323,-5e-7 1e-6,-1.058333 z"
       style="display:inline;fill:#4a4b53;fill-opacity:1;stroke:none;stroke-width:0.264583px;stroke-linecap:butt;stroke-linejoin:miter;stroke-opacity:1" />
    <path
       id="path32565-7"
       d="m 1.0583334,2.1166681 -1.05833293632568,2e-7 4.9e-7,4.2333321 1.05833294632568,8e-7 z"
       style="display:inline;fill:#4a4b53;fill-opacity:1;stroke:none;stroke-width:0.264583px;stroke-linecap:butt;stroke-linejoin:miter;stroke-opacity:1" />
    <path
       sodipodi:nodetypes="ccccccc"
       id="path65275"
       d="m 3.4395833,7.408334 1e-7,-0.3968755 0.6614584,-0.6614583 h 0.2645833 l 0.6614584,0.6614583 -1e-6,0.3968755 z"
       style="fill:#d2816b;fill-opacity:1;stroke:none;stroke-width:0.264583px;stroke-linecap:butt;stroke-linejoin:miter;stroke-opacity:1" />
    <path
       sodipodi:nodetypes="ccccccc"
       id="path86475"
       d="m 1.0583334,3.4395852 0.396875,-1.8e-6 0.6614583,0.6614584 v 0.2645833 l -0.6614583,0.6614584 -0.396875,9e-7 z"
       style="fill:#d2816b;fill-opacity:1;stroke:none;stroke-width:0.264583px;stroke-linecap:butt;stroke-linejoin:miter;stroke-opacity:1" />
    <path
       sodipodi:nodetypes="ccccccc"
       id="path86475-5"
       d="m 5.0270839,1.0583333 -4e-7,0.3968751 -0.6614584,0.6614583 H 4.1010418 l -0.6614584,-0.6614583 1.3e-6,-0.3968751 z"
       style="display:inline;fill:#fed482;fill-opacity:1;stroke:none;stroke-width:0.264583px;stroke-linecap:butt;stroke-linejoin:miter;stroke-opacity:1" />
    <path
       sodipodi:nodetypes="ccccccc"
       id="path86475-5-3"
       d="m 7.4083318,5.0270834 -0.3968733,10e-8 -0.6614583,-0.6614584 0,-0.2645833 0.6614583,-0.6614584 0.3968733,8e-7 z"
       style="display:inline;fill:#fed482;fill-opacity:1;stroke:none;stroke-width:0.264583px;stroke-linecap:butt;stroke-linejoin:miter;stroke-opacity:1" />
    <path
       sodipodi:nodetypes="ccccccccccc"
       id="path89636"
       d="m 1.0583348,3.4395838 -1.4e-6,-1.4552087 0.9260416,-0.9260417 1.4552091,2e-7 -7e-7,0.3968748 0.6614584,0.6614583 H 2.7781251 L 2.1166667,2.7781251 V 4.1010418 L 1.4552084,3.4395834 Z"
       style="fill:#989aa4;fill-opacity:1;stroke:none;stroke-width:0.264583px;stroke-linecap:butt;stroke-linejoin:miter;stroke-opacity:1" />
    <path
       sodipodi:nodetypes="ccccccccccc"
       id="path95634"
       d="m 7.4083313,3.4395849 2.2e-6,-1.4552098 -0.9260417,-0.9260417 -1.4552098,1.3e-6 1.5e-6,0.3968737 -0.6614584,0.6614583 h 1.3229167 l 0.6614584,0.6614584 0,1.3229167 0.6614583,-0.6614584 z"
       style="fill:#989aa4;fill-opacity:1;stroke:none;stroke-width:0.264583px;stroke-linecap:butt;stroke-linejoin:miter;stroke-opacity:1" />
    <path
       sodipodi:nodetypes="ccccccccccc"
       id="path95636"
       d="m 7.4083319,5.0270832 1.6e-6,1.4552086 -0.9260417,0.9260417 -1.4552092,-1e-7 9e-7,-0.3968749 -0.6614584,-0.6614583 h 1.3229167 l 0.6614584,-0.6614584 0,-1.3229167 0.6614583,0.6614584 z"
       style="fill:#989aa4;fill-opacity:1;stroke:none;stroke-width:0.264583px;stroke-linecap:butt;stroke-linejoin:miter;stroke-opacity:1" />
    <path
       sodipodi:nodetypes="ccccccccccc"
       id="path95638"
       d="m 1.0583333,5.0270844 -5e-7,1.5875001 0.7937496,0.79375 1.5875002,1e-7 8e-7,-0.3968761 0.6614584,-0.6614583 H 2.7781251 l -0.6614584,-0.6614584 0,-1.3229167 -0.6614583,0.6614584 z"
       style="fill:#6e707f;fill-opacity:1;stroke:none;stroke-width:0.264583px;stroke-linecap:butt;stroke-linejoin:miter;stroke-opacity:1" />
    <ellipse
       ry="1.0583334"
       rx="1.0583324"
       cy="4.2333331"
       cx="4.2333331"
       id="path95662"
       style="fill:#5f606c;fill-opacity:1;fill-rule:evenodd;stroke:none;stroke-width:3;stroke-linecap:round;stroke-linejoin:round" />
  </g>
  <g
     sodipodi:insensitive="true"
     style="display:none;opacity:0.5;mix-blend-mode:normal"
     inkscape:label="image"
     id="layer1"
     inkscape:groupmode="layer">
    <image
       y="4.7683716e-07"
       x="9.5367432e-07"
       id="image2897"
       xlink:href="data:image/png;base64,iVBORw0KGgoAAAANSUhEUgAAACAAAAAgBAMAAACBVGfHAAAAMFBMVEVKS1NucIDSgWv903+YmqQA AAAAAAAAAAAAAAAAAAAAAAAAAAAAAAAAAAAAAAAAAAC+ZgiFAAAAqUlEQVR42qVRwQ3DIAw8Jwxg OkFHyAh9dOw+MkImqLoBDBBKgw+IFKnpowgJ+7g7GyweQABXiQcc1m9ANt04IUeIIi1kTO12pKQc AiivhkpQqRRnPTxMcS8dWZWVFnMvOxNYTxvzfgeee9lAxsuyDctV8m76+M00t0QrEG1nsylAICny D11lh/MvVMauA0LgZqjnQORyZdA81NpN3VTsRVgOVVKdy7+z/QC8xCCnnBBQhQAAAABJRU5ErkJg gg== "
       style="image-rendering:optimizeSpeed"
       preserveAspectRatio="none"
       height="8.4666672"
       width="8.4666672" />
  </g>
</svg>

<?xml version="1.0" encoding="UTF-8" standalone="no"?>
<svg
   inkscape:version="1.1.2 (0a00cf5339, 2022-02-04, custom)"
   sodipodi:docname="underflow-gate.svg"
   id="svg5"
   version="1.1"
   viewBox="0 0 8.4666667 8.4666667"
   height="32"
   width="32"
   xmlns:inkscape="http://www.inkscape.org/namespaces/inkscape"
   xmlns:sodipodi="http://sodipodi.sourceforge.net/DTD/sodipodi-0.dtd"
   xmlns:xlink="http://www.w3.org/1999/xlink"
   xmlns="http://www.w3.org/2000/svg"
   xmlns:svg="http://www.w3.org/2000/svg"
   xmlns:rdf="http://www.w3.org/1999/02/22-rdf-syntax-ns#"
   xmlns:cc="http://creativecommons.org/ns#"
   xmlns:dc="http://purl.org/dc/elements/1.1/">
  <metadata
     id="metadata78">
    <rdf:RDF>
      <cc:Work
         rdf:about="">
        <dc:format>image/svg+xml</dc:format>
        <dc:type
           rdf:resource="http://purl.org/dc/dcmitype/StillImage" />
        <dc:title />
      </cc:Work>
    </rdf:RDF>
  </metadata>
  <sodipodi:namedview
     inkscape:document-rotation="0"
     inkscape:snap-global="true"
     units="px"
     inkscape:current-layer="layer3"
     inkscape:window-maximized="1"
     inkscape:window-y="0"
     inkscape:window-x="0"
     inkscape:window-height="1040"
     inkscape:window-width="1920"
     inkscape:cy="19"
     inkscape:cx="10.46875"
     inkscape:zoom="32"
     showgrid="true"
     inkscape:document-units="px"
     inkscape:pagecheckerboard="0"
     inkscape:pageopacity="0.0"
     inkscape:pageshadow="2"
     borderopacity="1.0"
     bordercolor="#666666"
     pagecolor="#ffffff"
     id="namedview7">
    <inkscape:grid
       empspacing="4"
       spacingy="0.13229167"
       spacingx="0.13229167"
       id="grid1873"
       type="xygrid" />
  </sodipodi:namedview>
  <defs
     id="defs2" />
  <g
     style="display:inline"
     inkscape:label="vector"
     id="layer3"
     inkscape:groupmode="layer">
    <path
       id="path2142"
       d="M 9.5367429e-7,4.7683716e-7 H 8.4666679 V 8.4666676 H 9.5367429e-7 Z"
       style="fill:none;stroke:none;stroke-width:0.264583px;stroke-linecap:butt;stroke-linejoin:miter;stroke-opacity:1" />
    <rect
       y="4.7683716e-07"
       x="9.5367426e-07"
       height="8.4666662"
       width="8.4666662"
       id="rect8428"
       style="fill:#6d6f7e;fill-opacity:1;fill-rule:evenodd;stroke:none;stroke-width:3;stroke-linecap:round;stroke-linejoin:round" />
    <rect
       y="2.116667"
       x="2.116668"
       height="4.2333331"
       width="4.2333307"
       id="rect107383"
       style="fill:#4a4b53;fill-opacity:1;fill-rule:evenodd;stroke:none;stroke-width:3;stroke-linecap:round;stroke-linejoin:round" />
    <path
       id="path32565"
       d="M 2.116667,4.7683716e-7 2.1166672,1.0583335 6.3499994,1.058333 6.3500002,0 Z"
       style="fill:#4a4b53;fill-opacity:1;stroke:none;stroke-width:0.264583px;stroke-linecap:butt;stroke-linejoin:miter;stroke-opacity:1" />
    <path
       id="path32565-3"
       d="m 8.4666648,2.116668 -1.058333,2e-7 5e-7,4.2333322 1.058333,8e-7 z"
       style="display:inline;fill:#4a4b53;fill-opacity:1;stroke:none;stroke-width:0.264583px;stroke-linecap:butt;stroke-linejoin:miter;stroke-opacity:1" />
    <path
       id="path32565-6"
       d="m 2.1166669,7.4083347 2e-7,1.058333 4.2333323,-5e-7 1e-6,-1.058333 z"
       style="display:inline;fill:#4a4b53;fill-opacity:1;stroke:none;stroke-width:0.264583px;stroke-linecap:butt;stroke-linejoin:miter;stroke-opacity:1" />
    <path
       id="path32565-7"
       d="m 1.0583334,2.1166681 -1.05833293632568,2e-7 4.9e-7,4.2333321 1.05833294632568,8e-7 z"
       style="display:inline;fill:#4a4b53;fill-opacity:1;stroke:none;stroke-width:0.264583px;stroke-linecap:butt;stroke-linejoin:miter;stroke-opacity:1" />
    <path
       sodipodi:nodetypes="ccccccc"
       id="path65275"
       d="m 3.4395833,7.408334 1e-7,-0.3968755 0.6614584,-0.6614583 h 0.2645833 l 0.6614584,0.6614583 -1e-6,0.3968755 z"
       style="fill:#d2816b;fill-opacity:1;stroke:none;stroke-width:0.264583px;stroke-linecap:butt;stroke-linejoin:miter;stroke-opacity:1" />
    <path
       sodipodi:nodetypes="ccccccc"
       id="path86475"
       d="m 1.0583334,3.4395852 0.396875,-1.8e-6 0.6614583,0.6614584 v 0.2645833 l -0.6614583,0.6614584 -0.396875,9e-7 z"
       style="fill:#d2816b;fill-opacity:1;stroke:none;stroke-width:0.264583px;stroke-linecap:butt;stroke-linejoin:miter;stroke-opacity:1" />
    <path
       sodipodi:nodetypes="ccccccc"
       id="path86475-5"
       d="m 5.0270839,1.0583333 -4e-7,0.3968751 -0.6614584,0.6614583 H 4.1010418 l -0.6614584,-0.6614583 1.3e-6,-0.3968751 z"
       style="display:inline;fill:#fed482;fill-opacity:1;stroke:none;stroke-width:0.264583px;stroke-linecap:butt;stroke-linejoin:miter;stroke-opacity:1" />
    <path
       sodipodi:nodetypes="ccccccc"
       id="path86475-5-3"
       d="m 7.4083318,5.0270834 -0.3968733,10e-8 L 6.3500002,4.3656251 V 4.1010418 l 0.6614583,-0.6614584 0.3968733,8e-7 z"
       style="display:inline;fill:#fed482;fill-opacity:1;stroke:none;stroke-width:0.264583px;stroke-linecap:butt;stroke-linejoin:miter;stroke-opacity:1" />
    <path
       sodipodi:nodetypes="ccccccccccc"
       id="path89636"
       d="m 1.0583348,3.4395838 -1.4e-6,-1.4552087 0.9260416,-0.9260417 1.4552091,2e-7 -7e-7,0.3968748 0.6614584,0.6614583 H 2.7781251 L 2.1166667,2.7781251 V 4.1010418 L 1.4552084,3.4395834 Z"
       style="fill:#989aa4;fill-opacity:1;stroke:none;stroke-width:0.264583px;stroke-linecap:butt;stroke-linejoin:miter;stroke-opacity:1" />
    <path
       sodipodi:nodetypes="ccccccccccc"
       id="path95634"
       d="m 7.4083313,3.4395849 2.2e-6,-1.4552098 -0.9260417,-0.9260417 -1.4552098,1.3e-6 1.5e-6,0.3968737 -0.6614584,0.6614583 H 5.6885418 L 6.3500002,2.7781251 V 4.1010418 L 7.0114585,3.4395834 Z"
       style="fill:#989aa4;fill-opacity:1;stroke:none;stroke-width:0.264583px;stroke-linecap:butt;stroke-linejoin:miter;stroke-opacity:1" />
    <path
       sodipodi:nodetypes="ccccccccccc"
       id="path95636"
       d="m 7.4083319,5.0270832 1.6e-6,1.4552086 -0.9260417,0.9260417 -1.4552092,-1e-7 9e-7,-0.3968749 L 4.3656251,6.3500002 H 5.6885418 L 6.3500002,5.6885418 V 4.3656251 l 0.6614583,0.6614584 z"
       style="fill:#989aa4;fill-opacity:1;stroke:none;stroke-width:0.264583px;stroke-linecap:butt;stroke-linejoin:miter;stroke-opacity:1" />
    <path
       sodipodi:nodetypes="ccccccccccc"
       id="path95638"
       d="m 1.0583333,5.0270844 -5e-7,1.5875001 0.7937496,0.79375 1.5875002,1e-7 8e-7,-0.3968761 0.6614584,-0.6614583 H 2.7781251 L 2.1166667,5.6885418 V 4.3656251 L 1.4552084,5.0270835 Z"
       style="fill:#6e707f;fill-opacity:1;stroke:none;stroke-width:0.264583px;stroke-linecap:butt;stroke-linejoin:miter;stroke-opacity:1" />
    <path
       style="fill:#6e7080;stroke:none;stroke-width:0.264583px;stroke-linecap:butt;stroke-linejoin:miter;stroke-opacity:1;fill-opacity:1"
       d="M 3.175,4.7624999 V 3.7041666 L 3.7041666,3.175 H 4.7624999 L 5.2916666,3.7041666 V 4.7624999 L 4.7624999,5.2916666 H 3.7041666 Z"
       id="path1231" />
  </g>
  <g
     sodipodi:insensitive="true"
     style="display:none;opacity:1;mix-blend-mode:normal"
     inkscape:label="image"
     id="layer1"
     inkscape:groupmode="layer">
    <image
       y="4.7683716e-07"
       x="9.5367432e-07"
       id="image2897"
       xlink:href="data:image/png;base64,iVBORw0KGgoAAAANSUhEUgAAACAAAAAgBAMAAACBVGfHAAAAMFBMVEVKS1NucIDSgWv903+YmqQA AAAAAAAAAAAAAAAAAAAAAAAAAAAAAAAAAAAAAAAAAAC+ZgiFAAAAqUlEQVR42qVRwQ3DIAw8Jwxg OkFHyAh9dOw+MkImqLoBDBBKgw+IFKnpowgJ+7g7GyweQABXiQcc1m9ANt04IUeIIi1kTO12pKQc AiivhkpQqRRnPTxMcS8dWZWVFnMvOxNYTxvzfgeee9lAxsuyDctV8m76+M00t0QrEG1nsylAICny D11lh/MvVMauA0LgZqjnQORyZdA81NpN3VTsRVgOVVKdy7+z/QC8xCCnnBBQhQAAAABJRU5ErkJg gg== "
       style="image-rendering:optimizeSpeed"
       preserveAspectRatio="none"
       height="8.4666672"
       width="8.4666672" />
  </g>
</svg>
